X:1
T:O God, you have searched me
T:O God, you have searched me
T:Charles M. Herrold, Jr.
T:c2010
T:c2010
T:c2010
T:c2010
T:c2010
T:c2010
T:c2010
T:c2010
T:c2010
T:c2010
T:c2010
T:c2010
C:Charles M. Herrold, Jr.
Z:c2010
%%score [ ( 1 2 ) ( 3 4 ) ] { ( 5 7 ) | ( 6 8 ) }
L:1/8
Q:1/2=60
M:2/2
K:Gmin
V:1 treble nm="Soprano/Alto" snm="S/A"
V:2 treble 
V:3 bass nm="Tenor/Bass" snm="T/B"
V:4 bass 
V:5 treble nm="Organ" snm="Org."
V:7 treble 
V:6 bass 
V:8 bass 
V:1
"^Paraphrase of Psalm 139\nby Verna Robinson""^Sostenuto" x8 |[M:3/2] z2"^Psalm 139" B2 B4 A2 G2 | %2
w: |O God, _ have|
[M:2/2] [CF]4 [DG]2 [CE]2 | [CD]4 [B,D]4- | [B,D]2 z2 z4 | z8 | z8 | z4!mf! z2 F2 | G2 B2 A2 F2 | %9
w: searched me and|know me!|_|||You|know me when I|
 G2 B2 A2 F2 | G2 B2 c4 | z8 |"^Sopranos"!f! z2 dd d2 d2 | (3c2 B2 A2 G4 | z2 d2 (3d2 d2 d2 | c8 | %16
w: sit down and when|I rise up.||You dis- cern my|thoughts from a far;|You search out my|path|
 z4"^a2" (3B2 G2 A2 | G2 GG F2 F2 | G4 z4 | (3A2 c2 B2 A2 A2 | ^F2 E2 D2 D2 | ^F4 z2!<(! D2 | %22
w: and are ac-|quaint- ed with all my|ways.|Ev- en be- fore a|word is on my|tongue, be-|
 (3(G2 B2) G2!<)! c4- | c2 (GA) A2 F2 | B2 A2 G2 G2- | G2 z2 z4 | z8 |[M:3/2]!mf! x12 |[M:2/2] x8 | %29
w: hold _ oh God,|_ you _ know it|all to- geth- er.|_||||
 C4"^Altos" B,2 z2 | x8 | x8 | x8 | z2"^a2" G2 (3D2 G2 D2 | B4 G2 G2 | c2 c2 c4 | %36
w: ||||Such know- ledge and|love is too|great for me.|
 z2 D2 (3D2 D2 =E2 | ^F2 F4 z2 | z8 ||[K:Cmin]"^Poco più mosso" z8 | z8 |[M:3/2] z12 | z12 | z12 | %44
w: I can- not at-|tain it!|||||||
!mf! z2 [Cc][Cc] [DB]4 z4 |[M:2/2] z8 | z8 | z2 [GB][GB] [GB]4 |[M:3/2]"^a2" z2 cc c2 c2 c2 cc | %49
w: you are there!|||you are there!|If I take the wings of the|
[M:2/2] B2 G2 z2 G2 | G2 AF (3B2 B2 B2 | c2 cc B4 | z2 GF E2 F2 | G4 E2 F2 | B2 G2 F2 A2 | %55
w: morn- ing and|dwell in the ut- ter- most|parts of the sea,|ev- en there your|left hand shall|lead me and your|
 c4 B2 c2 | [Be]2 c6 |"^rit." z8 | z8 ||[K:Gmin][M:3/2]"^Tempo I" z2 [GB][GB] [GB]4 z2 F2 | %60
w: right hand shall|hold me.|||If I say: "Let|
[M:2/2] G2 B2 A2 F2 | G2 B2 A2 FF | G2 B2 (A2 F2) | G2 B2 !breath!c4!mp! | (3A2 c2 B2 A2 A2 | %65
w: on- ly dark- ness|cov- er me, and the|light a- round _|me be night";|ev- en the dark- ness|
[M:5/4] ^F2 E2 D4 D2 |[M:2/2] ^F4 z2 D2 | (3(G2 B2) G2 A2 c2 | [Gd]6 (GA) | B2 G2 A4 | %70
w: is not dark to|you, for|dark- * ness is as|light to _|you, oh God.|
 z2 d2 d2 d2- | d2 d2 (3(c2 B2) A2 | G4 z2 d2 | (3d2 d2 d2 (3(c2 B2 A2) | G4 z2 D2 | %75
w: I praise you|_ for you _ are|great, and|won- der- ful are _ your|works. How|
 (B2 G2) A2 F2 | G4 F2 F2 | D4 z2 D2 | B2 G2 A4- | A2 [CF]2 [DG]2 [DG]2 |[M:3/2] [DG]4 z4 z4 || %81
w: pre- * cious to|me are your|thoughts, O|God how vast|_ the sum of|them.|
[K:Cmin][M:2/2]"^Poco più mosso" z8 | z8 | c2 cc c2 c2 | B2 G2 !breath!G4 | A2 AA A2 (GF) | %86
w: ||Search me, O God, and|know my heart.|Try me and know my _|
"^Molto rit." B6 z2 |"^Adagio"[Q:1/2=48][Q:1/2=48] z8 | z2 ([Ee][Fd]) [Fc]2 [Fc]2 | %89
w: thoughts,||and _ lead me|
[M:3/2] z2 ([Ee][Fd]) [Ec]2 [Ec]2 [B,B]2 [B,B]2 |[M:2/2] E4 E4 | z8 | z8 | z8 |] %94
w: in _ your way ev- er-|last- ing.||||
V:2
 z4!mp! z2 G2 |[M:3/2] G8 A2 G2 |[M:2/2] x8 | x8 | x8 | x8 | x8 | x8 | x8 | x8 | x8 | x8 | x8 | %13
w: O|God, you have||||||||||||
 x8 | x8 | z2 G2 (3G2 G2 G2 | F4 (3B2 G2 A2 | x8 | x8 | x8 | x8 | x8 | x8 | x8 | x8 | x8 | x8 | %27
w: ||You search out my|path * * *|||||||||||
[M:3/2] z2 [GB]2 [GB]4 A2 G2 |[M:2/2] [CF]2 [CF]2 [DG]2 [CE]2 | D4 D2 D2 | C2 E2 D2 B,2 | %31
w: You stand both be-|hind me and be-|fore me, and|lay your hand of|
 C2 E2 D2 F2 | G4 z4 | x8 | x8 | x8 | x8 | x8 | x8 ||[K:Cmin] x8 | x8 |[M:3/2] x12 | x12 | x12 | %44
w: bles- sing up- on|me.||||||||||||
 x12 |[M:2/2] x8 | x8 | x8 |[M:3/2] x12 |[M:2/2] x8 | x8 | x8 | x8 | x8 | x8 | x8 | x8 | x8 | x8 || %59
w: |||||||||||||||
[K:Gmin][M:3/2] x12 |[M:2/2] x8 | x8 | x8 | x8 | x8 |[M:5/4] x10 |[M:2/2] x8 | x8 | x8 | x8 | x8 | %71
w: ||||||||||||
 x8 | x8 | x8 | x8 | x8 | x8 | x8 | x8 | x8 |[M:3/2] x12 ||[K:Cmin][M:2/2] x8 | x8 | x8 | x8 | x8 | %86
w: |||||||||||||||
 x8 | x8 | x8 |[M:3/2] x12 |[M:2/2] x8 | x8 | x8 | x8 |] %94
w: ||||||||
V:3
 z8 |[M:3/2] z2 [G,D]2 [G,D]4 [A,C]2 [B,D]2 |[M:2/2] [D,A,]4 [E,B,]2 [^F,A,]2 | [G,A,]4 [D,G,]4- | %4
w: |O God, you have|searched me and|know me!|
 [D,G,]2 z2 z4 | z8 | z8 | z4 z2 F,2 | G,2 B,2 A,2 F,2 | G,2 B,2 A,2 F,2 | G,2 B,2 C4 | %11
w: _|||||||
 z8"^Tenors" | z2 DD D2 D2 | (3C2 B,2 A,2 G,4 | z2 D2 (3D2 D2 D2 | C8 | %16
w: ||||path|
!>(! z4"^a2" (3B,2 G,2 A,2!>)! |!mf! G,2 G,G, F,2 F,2 | G,4 z4 |!p! (3A,2 C2 B,2 A,2 A,2 | %20
w: ||||
 ^F,2 E,2 D,2 D,2 | ^F,4 z2 D,2 | (3(G,2 B,2) G,2 C4- | C2 (G,A,) A,2 F,2 | %24
w: ||||
!>(! B,2 A,2 G,2 G,2-!>)! | G,2 z2 z4 | z8 |[M:3/2] x12 |[M:2/2] x8 | A,4 G,2"^Basses"!mp! z2 | %30
w: ||||||
 E,2 G,2 B,2 A,2 | G,2 C,2 D,2 F,2 | G,4 z4 | z2"^a2" G,2 (3D,2 G,2 D,2 | B,4!<(! G,2 G,2!<)! | %35
w: |||||
 C2 C2 C4 | z2!f! D,2 (3D,2 D,2 =E,2 | ^F,2 F,4 z2 | z8 ||[K:Cmin] z8 | z8 | %41
w: ||||||
[M:3/2]!mf! C2 CC C2 CC B,2 !breath!G,2 | A,2 A,A, A,2 G,F, B,2 B,2 | z2 G,G, C2 G,G, E2 G,2 | %44
w: Where can I go from your spir- it,|where can I go from your pres- ence?|If I climb to the heav- ens,|
 z2 [C,C][C,C] [C,C]4 z4 |[M:2/2]"^Tenors" z2 G,G, C2 G,2 | E2 D2 F,4 | z2 [G,B,][G,B,] [G,B,]4 | %48
w: you are there!|If I make my|bed in hell,||
[M:3/2]"^a2" z2 CC C2 C2 C2 CC |[M:2/2] B,2 G,2 z2 G,2 | G,2 A,F, (3B,2 B,2 B,2 | C2 CC B,4 | %52
w: ||||
!mf! z2 G,F, E,2 F,2 | G,4 E,2 F,2 | B,2 G,2!<(! F,2 A,2 | C4 B,2!<)! C2 |!f! [B,E]2 C6 | z8 | %58
w: ||||||
 z8 ||[K:Gmin][M:3/2]!p! z2 [G,D][G,D] [G,D]4 z2 F,2 |[M:2/2] G,2 B,2 A,2 F,2 | G,2 B,2 A,2 F,F, | %62
w: ||||
 G,2 B,2 (A,2 F,2) | G,2 B,2 !breath!C4 | (3A,2 C2 B,2 A,2 A,2 |[M:5/4] ^F,2 E,2 D,4 D,2 | %66
w: ||||
[M:2/2] ^F,4 z2 D,2 |!<(! (3(G,2 B,2) G,2 A,2 C2!<)! |!mf! [G,D]6 G,A, | B,2 G,2 A,4 | %70
w: ||||
!f! z2 D2 D2 D2- | D2 D2 (3(C2 B,2) A,2 | G,4 z2 D2 | (3D2 D2 D2 (3(C2 B,2) A,2 | G,4 z2 D,2 | %75
w: |||||
 (B,2 G,2) A,2 F,2 | G,4 F,2 F,2 | D,4 z2 D,2 | B,2 G,2 A,4- | A,2 [D,A,]2 [G,,=B,]2 [G,,B,]2 | %80
w: |||||
[M:3/2] [G,,=B,]4 z4 z4 ||[K:Cmin][M:2/2] z8 | z8!mf! | C2 CC C2 C2 | B,2 G,2 !breath!G,4 | %85
w: |||||
 A,2 A,A, A,2 (G,F,) | B,6 z2 | z8 |!f! z2 ([E,E][F,D]) [F,C]2 [F,C]2 | %89
w: ||||
[M:3/2] z2 ([E,E][F,D]) [E,C]2 [E,C]2 [B,,B,]2 [B,,B,]2 |[M:2/2]!>(! E,4!>)! E,4 | z8 | z8 | z8 |] %94
w: |||||
V:4
 x8 |[M:3/2] x12 |[M:2/2] x8 | x8 | x8 | x8 | x8 | x8 | x8 | x8 | x8 | x8 | x8 | x8 | x8 | %15
 z2 G,2 (3G,2 G,2 G,2 | F,4 (3B,2 G,2 A,2 | x8 | x8 | x8 | x8 | x8 | x8 | x8 | x8 | x8 | x8 | %27
[M:3/2] z2 [G,D]2 [G,D]4 [A,C]2 [B,D]2 |[M:2/2] [D,A,]2 [D,A,]2 [E,B,]2 [^F,A,]2 | G,4 D,2 D,2 | %30
 x8 | x8 | x8 | x8 | x8 | x8 | x8 | x8 | x8 ||[K:Cmin] x8 | x8 |[M:3/2] x12 | x12 | x12 | x12 | %45
[M:2/2] x8 | x8 | x8 |[M:3/2] x12 |[M:2/2] x8 | x8 | x8 | x8 | x8 | x8 | x8 | x8 | x8 | x8 || %59
[K:Gmin][M:3/2] x12 |[M:2/2] x8 | x8 | x8 | x8 | x8 |[M:5/4] x10 |[M:2/2] x8 | x8 | x8 | x8 | x8 | %71
 x8 | x8 | x8 | x8 | x8 | x8 | x8 | x8 | x8 |[M:3/2] x12 ||[K:Cmin][M:2/2] x8 | x8 | x8 | x8 | x8 | %86
 x8 | x8 | x8 |[M:3/2] x12 |[M:2/2] x8 | x8 | x8 | x8 |] %94
V:5
!mp! z8 |[M:3/2] z12 |[M:2/2] z8 | z8 | (G2 B2) A4- | A2 F2 G4 | (G2 B2) A4 | G4 F4 | (G2 B2) A4 | %9
 G4 F4 | (G2 B2) A4 | G4 F4 | D8- | D8 | D8- | D8 | D8- | D8- | D6 z2 | ^F8- | F8- | F8 | G8- | %23
 G8- | G8- | G8- | G8 |[M:3/2] z12 |[M:2/2] z8 | z8 | z8 | z8 |!mf! g8- | g8 | g8- | g8 |!f! d8 | %37
 d8- | [^FAd]8 ||[K:Cmin]"^Poco più mosso" G8- | G8 |[M:3/2] G8- G4 | G8- G4 | G8- G4 | G8- G4 | %45
[M:2/2] G8- | G8 | G8 |[M:3/2] G8- G4 |[M:2/2] G8 | G8- | G8 | c8 | G8 | c8 | G8 |!f! c8 | %57
"^rit."!>(! [CGB]8 | z8!>)! ||[K:Gmin][M:3/2]"^Tempo I" z8 [CF]4 |[M:2/2] (G2 B2) A4 | G4 F4 | %62
 (G2 B2) A4 | G4 F4 | ^F8- |[M:5/4] F8- F2- |[M:2/2] F8 | G8- | G8 | [B,DG]4 [A,CF]4 | D8- | D8 | %72
 D8- | D8- | D8 | [DG]8- | [DG]8- | [DG]8- | [DG-]8 | G2 z2 z4 |[M:3/2] z4 [DG]8 || %81
[K:Cmin][M:2/2]"^Poco più mosso" G8- | G8 | G8- | G8 | G8- |"^Molto rit." G8 |"^Adagio" G8- | G8 | %89
[M:3/2] [CEG]8 [B,DF]4 |[M:2/2] [A,CE]8 | [EG]8 | [DFB]4 !fermata![EGc]2 z2 | %93
!p! !fermata![EGBe]8 |] %94
V:6
 G,,8 |[M:3/2] z12 |[M:2/2] z8 | z8 |!mp! [F,A,]8 |!<(! [E,G,]4 [F,A,]4!<)! |!mf! [G,B,]4 [A,C]4 | %7
 [E,B,]4 [F,A,]4 | [G,B,]4 [A,C]4 | [E,B,]4 [F,A,]4 | [G,B,]4 [A,C]4 | [_E,B,]4 [F,A,]4 | %12
!f! G,,8- | G,,8 | G,,8- | G,,8 |!>(! G,,8-!>)! |!mf! [G,,-D,]8 | G,,6 z2 |!p! A,8- | A,8- | A,8 | %22
!<(! [D,=F,]4 [=E,G,]4!<)! | [D,F,]4 [=E,G,]4 |!>(! [D,F,]4 [=E,G,]4!>)! | [C,_E,]4 [D,F,]4 | %26
 [E,G,]4 !fermata![F,A,]4 |[M:3/2] x12 |[M:2/2] z8 | z8 | z8 | z8 | G,8- | G,8 | G,8- | G,8 | G,8 | %37
"^Tenors" D,8- | [D,A,C]8 ||[K:Cmin]!mf! [C,G,]2 [A,,E,]2 [C,G,]2 [A,,E,]2 | %40
 [C,G,]2 A,,2 B,,2 C,2 |[M:3/2] A,,2 B,,2 C,2 D,2 E,2 F,2 | A,,2 B,,2 C,2 D,2 E,2 F,2 | %43
 A,2 G,2 F,2 D,2 C,2 B,,2 | A,,2 B,,2 C,2 D,2 E,2 F,2 |[M:2/2] A,2 G,2 F,2 D,2 | %46
 C,2 B,,2 A,,2 E,2 | G,,2 G,2 F,2 E,2 |[M:3/2] A,,2 B,,2 C,2 D,2 E,2 F,2 | %49
[M:2/2] A,,2 B,,2 C,2 E,2 | F,2 A,2 B,2 G,2 | A,,2 B,,2 C,2 D,2 | A,,2 B,,2 C,2 D,2 | %53
 E,2 F,2 G,2 A,2 | A,,2 B,,2 C,2 E,2 | B,2 A,2 G,2 F,2 | A,,2 B,,2 C,2 D,2 | [A,,E,G,-]8 | G,8- || %59
[K:Gmin][M:3/2] G,4 z4!p! [D,A,]4 |[M:2/2] [G,B,]4 [A,C]4 | [E,B,]4 [F,A,]4 | [G,B,]4 [A,C]4 | %63
 [E,B,]4 [D,A,]4 |!mp! E,4 D,4 |[M:5/4] C,4 D,6 |[M:2/2] E,4 D,4 |!<(! G,,8-!<)! |!mf! G,,8 | %69
 G,,4 D,4 |!f! G,,8- | G,,8 | G,,8- | G,,8- | G,,8 | G,,8- | G,,8 | G,,8- | G,,8- | G,,2 z2 z4 | %80
[M:3/2] z4!f!!>(! [G,,F,]8!>)! ||[K:Cmin][M:2/2]!mp! [C,G,]2 [A,,E,]2 [C,G,]2 [A,,E,]2 | %82
 [C,G,]2 A,,2!<(! B,,2 C,2!<)! |!mf! A,,2 B,,2 C,2 D,2 | E,2 F,2 G,2 B,,2 | A,,2 B,,2 C,2 D,2 | %86
 E,2 F,2 G,2 B,2 |!<(! A,,8-!<)! |!f! A,,8 |[M:3/2] A,,8 A,,4 |[M:2/2]!>(! [C,F,]8 | E,8- | %92
 E,8-!>)! |"^August 2010" !fermata![E,B,]8 |] %94
V:7
 x8 |[M:3/2] x12 |[M:2/2] x8 | x8 | [B,D]4 [CF]4 | [B,D]4 [CF]4 | D4 F4 | (C2 D2) D4 | D4 F4 | %9
 (C2 D2) D4 | D4 =E4 | (C2 D2) D4 | [A,C]4 B,4 | [A,C]4 B,4 | [A,C]4 B,4 | [A,C]4 B,4 | %16
 [A,C]4 B,4 | [A,C]4 B,4 | [A,C]4 B,2 z2 | C4 D4 | E4 D4 | C4 D4 | [B,D]4 [A,C]4 | [B,D]4 [A,C]4 | %24
 [B,D]4 [A,C]4 | [G,B,]4 [A,C]4 | !fermata![B,D]8 |[M:3/2] x12 |[M:2/2] x8 | x8 | x8 | x8 | %32
 [Bd]2 [Ac]2 [Bd]2 [Ac]2 | [Bd]2 [Ac]2 [Bd]2 [Ac]2 | [Bd]2 [Ac]2!<(! [Bd]2 [Ac]2 | %35
 [Bd]2!<)! [Ac]2 [Bd]2 [Ac]2 | [FA]2 [=EG]2 [FA]2 [EG]2 | [^FA]2 [=EG]2 [FA]2 [EG]2 | x8 || %39
[K:Cmin] C8 | D4 C4 |[M:3/2] C4 E4 D4 | C4 E4 D4 | C4 E4 D4 | C4 E4 D4 |[M:2/2] C4 E4 | D4 C4 | %47
 E4 D4 |[M:3/2] C4 E4 D4 |[M:2/2] C4 D4 | E4 D4 | C4 E4 | G4 F4 | C4 E4 | G4!<(! F4 | C4 E4!<)! | %56
 G4 E4 | x8 | x8 ||[K:Gmin][M:3/2] x12 |[M:2/2] D4 F4 | (C2 D2) D4 | D4 F4 | (C2 D2) D4 | C4 D4 | %65
[M:5/4] E4 D6 |[M:2/2] C4 D4 | [B,D]4 [A,C]4 | [B,D]4 [A,C]4 | x8 | [A,C]4 B,4 | [A,C]4 B,4 | %72
 [A,C]4 B,4 | [A,C]4 B,4 | [A,C]4 B,4 | A,4 B,4 | A,4 B,4 | A,4 B,4- | B,4 C4- | C2 z2 z4 | %80
[M:3/2] x12 ||[K:Cmin][M:2/2] C8 | D4 B,4 | C4 E4 | D4 B,4 | C4 E4 | D8 | [CEG]4 [B,DF]4 | %88
 [CEG]4 [B,DF]4 |[M:3/2] x12 |[M:2/2] x8 | D4 C4 | x8 | x8 |] %94
V:8
 x8 |[M:3/2] x12 |[M:2/2] x8 | x8 | G,,8- | G,,8 | x8 | x8 | x8 | x8 | x8 | x8 | [D,F,]4 [E,G,]4 | %13
 [D,F,]4 [E,G,]4 | [D,F,]4 [E,G,]4 | [D,F,]4 [E,G,]4 | [D,F,]4 [E,G,]4 | [D,F,]4 [E,G,]4 | %18
 [D,F,]4 [E,G,]2 z2 | E,4 D,4 | C,4 D,4 | E,4 D,4 | G,,8- | G,,8- | G,,8- | G,,8- | G,,8 | %27
[M:3/2] G,4 z8 |[M:2/2] x8 | x8 | x8 | x8 | [DF]2 [EG]2 [DF]2 [EG]2 | [A,C]2 [B,D]2 [CE]2 [DF]2 | %34
 [EG]2 [DF]2 [CE]2 [DF]2 | [A,C]2 [B,D]2 [CE]2 [DF]2 | [B,D]2 [A,C]2 [B,D]2 [A,C]2 | %37
 [A,C]2 [B,D]2 [A,C]2 [B,D]2 | x8 ||[K:Cmin] x8 | x8 |[M:3/2] x12 | x12 | x12 | x12 |[M:2/2] x8 | %46
 x8 | x8 |[M:3/2] x12 |[M:2/2] x8 | x8 | x8 | x8 | x8 | x8 | x8 | x8 | x8 | x8 || %59
[K:Gmin][M:3/2] x12 |[M:2/2] x8 | x8 | x8 | x8 | A,8- |[M:5/4] A,8- _A,2- |[M:2/2] A,8 | %67
 [D,=F,]4 [=E,G,]4 | [D,F,]4 [=E,G,]4 | [D,F,]4 [=E,G,]4 | [D,F,]4 [_E,G,]4 | [D,F,]4 [E,G,]4 | %72
 [D,F,]4 [E,G,]4 | [D,F,]4 [E,G,]4 | [D,F,]4 [E,G,]4 | [D,F,]4 [E,G,]4 | [D,F,]4 [E,G,]4 | %77
 [D,F,]4 [E,G,]4- | [E,G,]4 [F,A,]4- | [F,A,]2 z2 z4 |[M:3/2] x12 ||[K:Cmin][M:2/2] x8 | x8 | x8 | %84
 x8 | x8 | x8 | [E,G,]4 F,4 | [E,G,]4 F,4 |[M:3/2] [F,A,]4 [E,G,]4 F,4 |[M:2/2] x8 | %91
 [G,B,]4 [F,A,]4 | [G,B,]4 !fermata![A,C]2 z2 | z4 !fermata!E,,4 |] %94

